X: 1
T:Jessie Chisholm  "CYMRU"
M:C
L:1/8
Q:80
C:
S:Strathspey
K:HP
| {g}c/2{d}A3/2{g}c/2e3/2{ag}a2g/2a3/2|
{fg}f2{g}e2{A}e2a2|
f3/2g/2a3/2e/2{g}f/2a3/2c/2e3/2|  !
{gfg}f2{g}B2{GdGe}B2{gef}e3/2d/2| |
{g}c/2{d}A3/2{g}c/2e3/2{ag}a2g/2a3/2|
{fg}f2{g}e2{A}e2a2|  !
{g}a3/2e/2{g}f3/2d/2{g}f/2a3/2c/2a3/2|
{cd}c2{e}A2{GAG}A4|]
